X:1
T:The Gravel Walk
R:reel
M:4/4
L:1/8
K:Ador
|:A2eA (3cBA eA|A2eA BAGB|A2eA (3Bcd ef|gedc BAGB:|
|:~A2aA gAfA|A2eA BAGB|1 ~A2aA gAfA|gedc BAGB:|2 ABcd efga|gedc BAGB|]
|:cAAG A2AB|cA~A2 BG~G2|cAAG A2 (3Bcd|efge dBGB:|
|:~c2gc acgc|c2gc BAGB|~c2gc acga|gedc BAGB|
|~c2gc acgc|c2gc BAGB|ABcd efga|gedc BAGB:|